icons/forest_persons.svg

<svg width="48" height="48" viewBox="0 0 48 48" fill="none" xmlns="http://www.w3.org/2000/svg">
<path fill-rule="evenodd" clip-rule="evenodd" d="M6.09521 22.1905C6.09521 24.2944 7.8008 26 9.90474 26H15L15 37H8.5C7.11929 37 6 38.1193 6 39.5C6 40.8807 7.11929 42 8.5 42H39.5C40.8807 42 42 40.8807 42 39.5C42 38.1193 40.8807 37 39.5 37H39.0232C39.1425 36.9973 39.2633 36.973 39.3803 36.9249C39.8911 36.7148 40.1349 36.1305 39.9249 35.6197L38.3095 31.6911C38.2554 31.5595 38.1738 31.441 38.0702 31.3435L35.2748 28.7106L36.2133 25.1024C36.5026 25.6312 36.8045 26.1122 37.1623 26.5179C37.6021 27.0165 38.1168 27.3915 38.7737 27.6376C39.4093 27.8757 40.1337 27.9764 40.9723 27.9996C41.5244 28.0149 41.9843 27.5797 41.9996 27.0277C42.0149 26.4756 41.5797 26.0157 41.0277 26.0004C40.3017 25.9803 39.8224 25.8947 39.4754 25.7647C39.1496 25.6427 38.9026 25.4675 38.6622 25.1949C38.4039 24.9021 38.1492 24.493 37.8293 23.8835C37.6425 23.5276 37.4534 23.1438 37.2369 22.7041C37.0746 22.3744 36.8968 22.0133 36.6928 21.6091C36.3384 20.9066 35.591 20.4728 34.9905 20.2506C34.3847 20.0266 33.5609 19.8819 32.8643 20.1299C29.8585 21.2012 28.1581 23.4825 27.0549 26.6732C26.8744 27.1952 27.1513 27.7646 27.6732 27.9451C28.1952 28.1256 28.7646 27.8487 28.9451 27.3268C29.5541 25.5655 30.3102 24.254 31.3303 23.321L31.0041 26.9095C30.9763 27.2155 31.0907 27.5173 31.3144 27.728L36.5418 32.6514L38.0751 36.3803C38.2309 36.7592 38.5926 36.9912 38.9775 37H28.0104C28.22 36.998 28.4307 36.9303 28.6096 36.7926L31.6096 34.4849C31.7753 34.3575 31.8969 34.1813 31.9573 33.9812L32.819 31.1259L31.1657 29.5606L30.9649 30.3471L30.1354 33.0957L27.3902 35.2074C26.9525 35.5441 26.8706 36.172 27.2073 36.6097C27.4021 36.863 27.6944 36.9971 27.9909 37H17L17 26H22.2857C24.3896 26 26.0952 24.2944 26.0952 22.1905C26.0952 20.7343 25.2782 19.469 24.0776 18.8279C24.2072 18.3854 24.277 17.9155 24.277 17.4285C24.277 15.4199 23.09 13.7018 21.4107 13.0021C21.5017 12.5882 21.5498 12.1571 21.5498 11.7143C21.5498 8.55837 19.1077 6 16.0952 6C13.0827 6 10.6407 8.55837 10.6407 11.7143C10.6407 12.1571 10.6887 12.5882 10.7797 13.0021C9.10046 13.7018 7.91338 15.4199 7.91338 17.4285C7.91338 17.9155 7.98316 18.3854 8.11281 18.8279C6.91221 19.469 6.09521 20.7343 6.09521 22.1905ZM19.0984 14.2053L19.4573 12.5726C19.5175 12.2991 19.5498 12.012 19.5498 11.7143C19.5498 9.57424 17.9164 8 16.0952 8C14.274 8 12.6407 9.57424 12.6407 11.7143C12.6407 12.012 12.673 12.2991 12.7331 12.5726L13.092 14.2053L11.549 14.8482C10.6293 15.2314 9.91338 16.2117 9.91338 17.4285C9.91338 17.7238 9.9556 18.0043 10.0321 18.2655L10.4894 19.826L9.05492 20.5921C8.47954 20.8993 8.09521 21.5016 8.09521 22.1905C8.09521 23.1898 8.90537 24 9.90474 24H15V21H17V24H22.2857C23.2851 24 24.0952 23.1898 24.0952 22.1905C24.0952 21.5016 23.7109 20.8993 23.1355 20.5921L21.701 19.826L22.1583 18.2655C22.2348 18.0044 22.277 17.7238 22.277 17.4285C22.277 16.2117 21.5611 15.2314 20.6414 14.8482L19.0984 14.2053ZM8 39.5C8 39.2239 8.22386 39 8.5 39H39.5C39.7761 39 40 39.2239 40 39.5C40 39.7761 39.7761 40 39.5 40H8.5C8.22386 40 8 39.7761 8 39.5Z" fill="black"/>
<path d="M38 16.5C38 17.8807 36.8807 19 35.5 19C34.1193 19 33 17.8807 33 16.5C33 15.1193 34.1193 14 35.5 14C36.8807 14 38 15.1193 38 16.5Z" fill="black"/>
</svg>

<svg
  xmlns="http://www.w3.org/2000/svg"
  width="24"
  height="24"
  viewBox="0 0 24 24"
  fill="none"
  stroke="currentColor"
  stroke-width="2"
  stroke-linecap="round"
  stroke-linejoin="round"
>
  <path
    fill-rule="evenodd"
    d="M6.095 22.19A3.81 3.81 0 0 0 9.905 26H15v11H8.5a2.5 2.5 0 0 0 0 5h31a2.5 2.5 0 0 0 0-5h-.477a1 1 0 0 0 .902-1.38l-1.616-3.929a1 1 0 0 0-.239-.348l-2.795-2.632.938-3.609c.29.53.591 1.01.95 1.416.44.498.954.874 1.61 1.12.636.238 1.36.338 2.2.362a1 1 0 0 0 .055-2c-.726-.02-1.206-.105-1.553-.235a1.94 1.94 0 0 1-.813-.57c-.258-.293-.513-.702-.833-1.311-.187-.356-.376-.74-.592-1.18-.162-.33-.34-.69-.544-1.095-.355-.702-1.102-1.136-1.703-1.358-.605-.224-1.43-.37-2.126-.121-3.005 1.071-4.706 3.353-5.81 6.543a1 1 0 0 0 1.891.654c.61-1.762 1.365-3.073 2.385-4.006l-.326 3.589a1 1 0 0 0 .31.818l5.228 4.923 1.533 3.73a1 1 0 0 0 .902.619H28.01c.21-.002.42-.07.6-.207l3-2.308a1 1 0 0 0 .347-.504l.862-2.855-1.653-1.565-.201.786-.83 2.749-2.745 2.111a1 1 0 0 0 .6 1.793H17V26h5.286a3.81 3.81 0 0 0 1.792-7.172c.13-.443.199-.912.199-1.4 0-2.008-1.187-3.726-2.866-4.426q.137-.622.139-1.288C21.55 8.558 19.108 6 16.095 6s-5.454 2.558-5.454 5.714q.001.666.139 1.288c-1.68.7-2.867 2.418-2.867 4.426 0 .488.07.957.2 1.4a3.81 3.81 0 0 0-2.018 3.363m13.003-7.985.36-1.632q.091-.412.092-.859C19.55 9.574 17.916 8 16.095 8s-3.454 1.574-3.454 3.714q.001.447.092.859l.359 1.632-1.543.643c-.92.383-1.636 1.364-1.636 2.58 0 .296.043.576.12.837l.456 1.561-1.434.766A1.809 1.809 0 0 0 9.905 24H15v-3h2v3h5.286a1.81 1.81 0 0 0 .85-3.408l-1.435-.766.457-1.56q.117-.394.119-.837c0-1.217-.716-2.198-1.636-2.58zM8 39.5a.5.5 0 0 1 .5-.5h31a.5.5 0 0 1 0 1h-31a.5.5 0 0 1-.5-.5"
    clip-rule="evenodd"
  />
  <path d="M38 16.5a2.5 2.5 0 1 1-5 0 2.5 2.5 0 0 1 5 0" />
</svg>
